Adwaita++-Dark/actions/16/labplot-xy-plot-two-axes-centered.svg

<svg height="16" viewBox="0 0 16 16" width="16" xmlns="http://www.w3.org/2000/svg">
  <path d="m15 0v2.40625l-4 3.671875v1.921875h-3v-7h-1v7h-7v1h7v3.242188l-3 2.753906v.003906h-4v1h4.3847656l2.6152344-2.400391v2.400391h1v-3.318359l4-3.6718754v-.0097656h3v-1h-3v-1.4824219l4-3.671875v-2.8457031zm-7 9h2.53125l-2.53125 2.324219z" fill="#e6ddff"/>
</svg>

<svg xmlns="http://www.w3.org/2000/svg" width="16" height="16" viewBox="0 0 16 16">
 <defs>
  <style id="current-color-scheme" type="text/css">
   .ColorScheme-Text { color:#E6DDFF; } .ColorScheme-Highlight { color:#4285f4; }
  </style>
 </defs>
 <path style="fill:currentColor" class="ColorScheme-Text" d="M 15 0 L 15 2.40625 L 11 6.078125 L 11 8 L 8 8 L 8 1 L 7 1 L 7 8 L 0 8 L 0 9 L 7 9 L 7 12.242188 L 4 14.996094 L 4 15 L 0 15 L 0 16 L 4.3847656 16 L 7 13.599609 L 7 16 L 8 16 L 8 12.681641 L 12 9.0097656 L 12 9 L 15 9 L 15 8 L 12 8 L 12 6.5175781 L 16 2.8457031 L 16 0 L 15 0 z M 8 9 L 10.53125 9 L 8 11.324219 L 8 9 z"/>
</svg>
